public/assets/logos/HTML CSS SVG Icon.svg

<svg xmlns="http://www.w3.org/2000/svg" width="800" height="800" fill="none" viewBox="0 0 32 32"><path fill="#E44D26" d="M6 28 4 3h24l-2 25-10 3z"/><path fill="#F16529" d="M26 5H16v24.5l8-2.5z"/><path fill="#fff" d="M9.5 17.5 8.5 8H24l-.5 3h-12l.5 3.5h11L22 24l-6 2-6-2-.5-5h3l.5 2.5 3 1 3-1 .5-4z"/></svg>

<?xml version="1.0" encoding="utf-8"?><!-- Uploaded to: SVG Repo, www.svgrepo.com, Generator: SVG Repo Mixer Tools -->
<svg width="800px" height="800px" viewBox="0 0 32 32" fill="none" xmlns="http://www.w3.org/2000/svg">
<path d="M6 28L4 3H28L26 28L16 31L6 28Z" fill="#E44D26"/>
<path d="M26 5H16V29.5L24 27L26 5Z" fill="#F16529"/>
<path d="M9.5 17.5L8.5 8H24L23.5 11H11.5L12 14.5H23L22 24L16 26L10 24L9.5 19H12.5L13 21.5L16 22.5L19 21.5L19.5 17.5H9.5Z" fill="white"/>
</svg>
